color/xdn.svg

<!-- Generated by IcoMoon.io -->
<svg version="1.1" xmlns="http://www.w3.org/2000/svg" width="32" height="32" viewBox="0 0 32 32">
<title>xdn</title>
<path fill="#4f7aa2" d="M32 16c0 8.837-7.163 16-16 16s-16-7.163-16-16c0-8.837 7.163-16 16-16s16 7.163 16 16z"></path>
<path fill="#fff" d="M13.309 12h2.738c1.322 0 3.683 0.803 3.683 4s-2.36 4-3.683 4h-2.737zM14.819 18.38h1.134c0.944 0 2.077-0.578 2.077-2.38s-1.133-2.38-2.077-2.38h-1.133zM20.77 12h0.566l5.098 7.026v-7.026h0.566v8h-0.567l-5.098-6.872v6.872h-0.567zM5 12h1.888v2h-1.888zM7.833 12h1.887v2h-1.887zM10.665 12h1.889v2h-1.889zM10.665 15h1.889v2h-1.889zM10.665 18h1.889v2h-1.889zM7.833 15h1.887v2h-1.887z"></path>
</svg>

<svg height="32" width="32" xmlns="http://www.w3.org/2000/svg"><g fill="none" fill-rule="evenodd"><circle cx="16" cy="16" fill="#4f7aa2" r="16"/><path d="M13.309 12h2.738c1.322 0 3.683.803 3.683 4s-2.36 4-3.683 4H13.31zm1.51 6.38h1.134c.944 0 2.077-.578 2.077-2.38s-1.133-2.38-2.077-2.38H14.82zM20.77 12h.566l5.098 7.026V12H27v8h-.567l-5.098-6.872V20h-.567zM5 12h1.888v2H5zm2.833 0H9.72v2H7.833zm2.832 0h1.889v2h-1.889zm0 3h1.889v2h-1.889zm0 3h1.889v2h-1.889zm-2.832-3H9.72v2H7.833z" fill="#fff" fill-rule="nonzero"/></g></svg>
